img/history_gray.svg

<svg width="24" height="24" viewBox="0 0 24 24" fill="none" xmlns="http://www.w3.org/2000/svg">
<path d="M11.9942 24C18.5713 24 24 18.5687 24 12C24 5.43133 18.5597 0 11.9826 0C5.41711 0 0 5.43133 0 12C0 18.5687 5.42871 24 11.9942 24ZM6.1479 13.4623C5.62591 13.4623 5.21991 13.0561 5.21991 12.5338C5.21991 12.0116 5.62591 11.6054 6.1479 11.6054H11.0662V4.94391C11.0662 4.42166 11.4722 4.01547 11.9826 4.01547C12.5162 4.01547 12.9222 4.42166 12.9222 4.94391V12.5338C12.9222 13.0561 12.5162 13.4623 11.9826 13.4623H6.1479Z" fill="#AAB8C6"/>
</svg>

<svg width="24" height="24" fill="none" xmlns="http://www.w3.org/2000/svg"><path d="M11.994 24C18.571 24 24 18.569 24 12S18.56 0 11.983 0C5.417 0 0 5.431 0 12s5.429 12 11.994 12zM6.148 13.462a.916.916 0 0 1-.928-.928c0-.522.406-.929.928-.929h4.918V4.944c0-.522.406-.929.917-.929.533 0 .94.407.94.929v7.59a.92.92 0 0 1-.94.928H6.148z" fill="#AAB8C6"/></svg>
